X:2
T:Tears In Heaven
C:Eric Clapton
L:1/8
M:C
I:linebreak $
K:A
"A" z2 cA"E7" e2 e2 |"F#m" c4"A" z4 |"D" z2 dd"A" cBAc |"E7" B8 |$"A" z2 cA"E7" e2 e2 |
"F#m" c8 "A" x4|"D" z2 dd"A" cBAc |"E7" B8 ||$[K:E]"F#m" z2 AA"B7" B2 F2 |"E" G8 ||
[K:D]"Em" z2 GG"A7" A2 E2 |"D" F4"C#m" B2"F#7" c2 ||$[K:A]"Bm" z2 dd cB Ac |O"E7" B8"^To Coda" :|
[K:C]"C" z2 ee"G7" d2 d2 |"Am" c2 cA"D7" d2 d2 |$"G" B8 | z8 |"C" z2 ee"G7" d2 d2 |
"Am" c2 cA"D7" d2 d2 |$"G" B4 z Bde- ||[K:A]"E7" "_D.C. al Coda" e8 ||"A" A8 | z8 |]

